img/ico/callback-phone-button-ico.svg

<svg width="28" height="28" viewBox="0 0 28 28" fill="none" xmlns="http://www.w3.org/2000/svg">
<path opacity="0.998" fill-rule="evenodd" clip-rule="evenodd" d="M6.07836 3.48833C6.42978 3.44342 6.72922 3.54454 6.97669 3.79167C8.0325 5.39768 9.0825 7.00768 10.1267 8.62167C10.2302 9.02386 10.1913 9.41276 10.01 9.78833C9.43841 10.7607 8.84341 11.7173 8.22503 12.6583C8.48438 13.3405 8.82271 13.9783 9.24003 14.5717C10.3477 16.1305 11.6738 17.4721 13.2184 18.5967C13.885 19.0759 14.6044 19.4609 15.3767 19.7517C16.2377 19.1941 17.1049 18.6458 17.9784 18.1067C18.2409 17.9518 18.5209 17.8429 18.8184 17.78C18.9661 17.7644 19.1139 17.7644 19.2617 17.78C19.3344 17.8047 19.4044 17.8358 19.4717 17.8733C21.0802 18.9142 22.6825 19.9642 24.2784 21.0233C24.444 21.2126 24.5294 21.4343 24.535 21.6883C24.5182 21.9729 24.4366 22.2374 24.29 22.4817C23.6318 23.3812 22.8968 24.2174 22.085 24.99C21.8053 25.2464 21.4942 25.4564 21.1517 25.62C20.9968 25.6452 20.8413 25.6646 20.685 25.6783C19.5652 25.6496 18.4841 25.428 17.4417 25.0133C15.8743 24.374 14.4198 23.5494 13.0784 22.54C10.0132 20.2293 7.3493 17.5265 5.08669 14.4317C4.26265 13.2663 3.57042 12.0218 3.01003 10.6983C2.56081 9.61109 2.32358 8.47943 2.29836 7.30333C2.29495 7.07247 2.35329 6.8586 2.47336 6.66167C2.71115 6.30709 2.97559 5.97266 3.26669 5.65833C4.0044 4.88117 4.81717 4.20063 5.70503 3.61667C5.82977 3.56603 5.9542 3.52326 6.07836 3.48833Z" fill="black"/>
<path opacity="0.999" fill-rule="evenodd" clip-rule="evenodd" d="M16.2749 3.48833C16.3214 4.06336 16.3369 4.64669 16.3216 5.23833C17.8777 5.22732 19.4333 5.23899 20.9883 5.27333C22.4215 5.57874 23.3587 6.43041 23.7999 7.82833C23.8431 7.99729 23.8741 8.16839 23.8933 8.34167C23.9049 10.4183 23.9089 12.495 23.9049 14.5717C23.1272 14.5717 22.3494 14.5717 21.5716 14.5717C21.5755 12.6272 21.5716 10.6828 21.5599 8.73833C21.5187 8.14483 21.2115 7.7676 20.6383 7.60667C19.1999 7.57255 17.761 7.56089 16.3216 7.57167C16.3294 8.15521 16.3216 8.73854 16.2983 9.32167C14.9943 8.35485 13.6954 7.38262 12.4016 6.405C13.6934 5.43256 14.9845 4.46035 16.2749 3.48833Z" fill="black"/>
</svg>

<svg width="28" height="28" viewBox="0 0 28 28" fill="currentColor" xmlns="http://www.w3.org/2000/svg" class="svg-icon">
    <path
        d="M6.078 3.488q.527-.067.899.304a787 787 0 0 1 3.15 4.83q.154.603-.117 1.166a68 68 0 0 1-1.785 2.87q.39 1.024 1.015 1.914a17.5 17.5 0 0 0 3.978 4.025q1 .718 2.159 1.155 1.29-.837 2.601-1.645a2.8 2.8 0 0 1 .84-.327q.222-.024.444 0 .108.038.21.093 2.412 1.562 4.806 3.15.248.285.257.665-.025.428-.245.794-.987 1.35-2.205 2.508-.42.384-.933.63-.232.038-.467.058a9.4 9.4 0 0 1-3.243-.665 19.4 19.4 0 0 1-4.364-2.473 38.7 38.7 0 0 1-7.991-8.108 20 20 0 0 1-2.077-3.734 9.3 9.3 0 0 1-.712-3.395q-.005-.345.175-.641.357-.533.794-1.004a13.8 13.8 0 0 1 2.438-2.041q.188-.077.373-.129" />
    <path
        d="M16.275 3.488q.07.863.047 1.75 2.334-.015 4.666.035 2.15.459 2.812 2.555.065.254.093.514.018 3.114.012 6.23h-2.333q.006-2.918-.012-5.834-.061-.89-.922-1.131a138 138 0 0 0-4.316-.035q.011.875-.024 1.75a535 535 0 0 1-3.896-2.917z" />
</svg>
